X:248
T:score5
L:1/8
Q:1/4=96
M:2/4
I:linebreak $
K:Bb
 (f.d) .d.d | (f.d) .d.d' | (c'/b/).a/.g/ .f.e | .d.e !tenuto!f2 |$ (f.d) .d.d | (f.d) .d.d' | %6
 (c'/b/).a/.g/ .f.a | b z z2 |] %8
